X: 34252
T: Reg Hall's
R: polka
M: 2/4
K: Dmajor
FG/F/ EF|D>E FA|BA dA|Bd AG|
FG/F/ EF|D>E FA|Bd AF|E2 EA:|
d>e fe|dc BA|Be ed|Be ef|d>e fe|dc BA|Bd AF|E2 E2|
d>e fe|dc BA|Be ef|gf ef|d>e fe|dc BA|Bd AF|E2 E2||

